X: 36480
T: Sellenger's Round
R: jig
M: 6/8
K: Gmixolydian
G3 G>AB|c3 c>de|d2c B>AB|1 c6:|2 c5||
|:d|e3 e>dc|d3 d2d|B>cd d>cB|A3 d2B|
c>dc B2G|A>Bc B2G|A2G ^FEF|G3G2:|

